svg/creeperFace.svg

<?xml version="1.0" encoding="UTF-8" standalone="no"?>
<!-- Created with Inkscape (http://www.inkscape.org/) -->

<svg
   width="32"
   height="32"
   viewBox="0 0 8.4666666 8.4666668"
   version="1.1"
   id="svg5"
   inkscape:version="1.2 (dc2aeda, 2022-05-15)"
   sodipodi:docname="creeperFace.svg"
   xmlns:inkscape="http://www.inkscape.org/namespaces/inkscape"
   xmlns:sodipodi="http://sodipodi.sourceforge.net/DTD/sodipodi-0.dtd"
   xmlns="http://www.w3.org/2000/svg"
   xmlns:svg="http://www.w3.org/2000/svg"
   xmlns:rdf="http://www.w3.org/1999/02/22-rdf-syntax-ns#"
   xmlns:cc="http://creativecommons.org/ns#">
  <sodipodi:namedview
     id="namedview7"
     pagecolor="#ffffff"
     bordercolor="#111111"
     borderopacity="1"
     inkscape:pageshadow="0"
     inkscape:pageopacity="0"
     inkscape:pagecheckerboard="1"
     inkscape:document-units="mm"
     showgrid="true"
     width="32mm"
     units="px"
     objecttolerance="10000"
     guidetolerance="10000"
     inkscape:snap-perpendicular="true"
     inkscape:snap-tangential="true"
     inkscape:zoom="34.90625"
     inkscape:cx="11.459266"
     inkscape:cy="22.932856"
     inkscape:window-width="2560"
     inkscape:window-height="1301"
     inkscape:window-x="0"
     inkscape:window-y="25"
     inkscape:window-maximized="0"
     inkscape:current-layer="layer1"
     inkscape:showpageshadow="0"
     inkscape:deskcolor="#d1d1d1">
    <inkscape:grid
       type="xygrid"
       id="grid9"
       units="px"
       empspacing="4" />
  </sodipodi:namedview>
  <defs
     id="defs2" />
  <g
     inkscape:label="Layer 1"
     inkscape:groupmode="layer"
     id="layer1">
    <path
       id="rect252"
       style="fill:#000000;stroke-width:0"
       d="M 4.2333333 4.2333333 A 3.175 3.175 0 0 0 1.0583333 7.4083333 L 1.0583333 8.4666667 L 1.5875 8.4666667 C 1.5874999 7.8821671 2.0613337 7.4083333 2.6458333 7.4083333 L 5.8208333 7.4083333 C 6.4053329 7.4083333 6.8791668 7.8821671 6.8791667 8.4666667 L 7.4083333 8.4666667 L 7.4083333 7.4083333 A 3.175 3.175 0 0 0 4.2333333 4.2333333 z " />
    <path
       id="path438"
       style="fill:#000000;stroke-width:0"
       d="M 1.8520833 2.1166667 A 0.79374999 0.79375005 0 0 0 1.0583333 2.9104167 L 1.0583333 3.4395833 A 0.79374999 0.79374999 0 0 0 1.8520833 4.2333333 L 2.38125 4.2333333 A 0.79374993 0.79374993 0 0 0 3.175 3.4395833 L 3.175 2.9104167 A 0.79374993 0.79375005 0 0 0 2.38125 2.1166667 L 1.8520833 2.1166667 z " />
    <path
       id="path451"
       style="fill:#000000;stroke-width:0"
       d="m 6.0854162,2.1166667 a 0.79374999,0.79375005 0 0 0 -0.79375,0.79375 v 0.5291666 a 0.79374999,0.79374999 0 0 0 0.79375,0.79375 h 0.5291667 a 0.79374993,0.79374993 0 0 0 0.79375,-0.79375 V 2.9104167 a 0.79374993,0.79375005 0 0 0 -0.79375,-0.79375 z" />
  </g>
  <metadata
     id="metadata33">
    <rdf:RDF>
      <cc:Work
         rdf:about="">
        <cc:license
           rdf:resource="http://creativecommons.org/licenses/by-sa/4.0/" />
      </cc:Work>
      <cc:License
         rdf:about="http://creativecommons.org/licenses/by-sa/4.0/">
        <cc:permits
           rdf:resource="http://creativecommons.org/ns#Reproduction" />
        <cc:permits
           rdf:resource="http://creativecommons.org/ns#Distribution" />
        <cc:requires
           rdf:resource="http://creativecommons.org/ns#Notice" />
        <cc:requires
           rdf:resource="http://creativecommons.org/ns#Attribution" />
        <cc:permits
           rdf:resource="http://creativecommons.org/ns#DerivativeWorks" />
        <cc:requires
           rdf:resource="http://creativecommons.org/ns#ShareAlike" />
      </cc:License>
    </rdf:RDF>
  </metadata>
</svg>

<svg width="32" height="32" viewBox="0 0 8.467 8.467" xmlns="http://www.w3.org/2000/svg"><path style="fill:#000;stroke-width:0" d="M4.233 4.233a3.175 3.175 0 0 0-3.175 3.175v1.059h.53c0-.585.473-1.059 1.058-1.059H5.82c.584 0 1.058.474 1.058 1.059h.53V7.408a3.175 3.175 0 0 0-3.176-3.175zM1.852 2.117a.794.794 0 0 0-.794.793v.53a.794.794 0 0 0 .794.793h.53a.794.794 0 0 0 .793-.793v-.53a.794.794 0 0 0-.794-.793h-.529zM6.085 2.117a.794.794 0 0 0-.793.793v.53a.794.794 0 0 0 .793.793h.53a.794.794 0 0 0 .793-.793v-.53a.794.794 0 0 0-.793-.793z"/></svg>
